icons/scissors.svg

<svg xmlns="http://www.w3.org/2000/svg" width="24" height="24" viewBox="0 0 24 24">
  <path d="M6.5,2 C8.98528137,2 11,4.01471863 11,6.5 C11,7.38015953 10.7473112,8.20130042 10.3105216,8.89483459 L12,10.585 L20.2928932,2.29289322 C20.6834175,1.90236893 21.3165825,1.90236893 21.7071068,2.29289322 C22.0675907,2.65337718 22.0953203,3.22060824 21.7902954,3.61289944 L21.7071068,3.70710678 L10.3105216,15.1051654 C10.7473112,15.7986996 11,16.6198405 11,17.5 C11,19.9852814 8.98528137,22 6.5,22 C4.01471863,22 2,19.9852814 2,17.5 C2,15.0147186 4.01471863,13 6.5,13 C7.38015953,13 8.20130042,13.2526888 8.89483459,13.6894784 L10.585,12 L8.89483459,10.3105216 C8.25725221,10.7120726 7.51182224,10.9580297 6.7118357,10.995102 L6.5,11 C4.01471863,11 2,8.98528137 2,6.5 C2,4.01471863 4.01471863,2 6.5,2 Z M15.6128994,14.2097046 L15.7071068,14.2928932 L21.7071068,20.2928932 C22.0976311,20.6834175 22.0976311,21.3165825 21.7071068,21.7071068 C21.3466228,22.0675907 20.7793918,22.0953203 20.3871006,21.7902954 L20.2928932,21.7071068 L14.2928932,15.7071068 C13.9023689,15.3165825 13.9023689,14.6834175 14.2928932,14.2928932 C14.6533772,13.9324093 15.2206082,13.9046797 15.6128994,14.2097046 Z M6.5,15 C5.11928813,15 4,16.1192881 4,17.5 C4,18.8807119 5.11928813,20 6.5,20 C7.88071187,20 9,18.8807119 9,17.5 C9,16.1192881 7.88071187,15 6.5,15 Z M6.5,4 C5.11928813,4 4,5.11928813 4,6.5 C4,7.88071187 5.11928813,9 6.5,9 C7.88071187,9 9,7.88071187 9,6.5 C9,5.11928813 7.88071187,4 6.5,4 Z"/>
</svg>

<svg xmlns="http://www.w3.org/2000/svg" viewBox="0 0 24 24">
  <path d="M6.5 2a4.5 4.5 0 0 1 3.81 6.9L12 10.58l8.3-8.3a1 1 0 0 1 1.49 1.32l-.08.1-11.4 11.4a4.5 4.5 0 1 1-1.42-1.42L10.6 12l-1.7-1.69c-.63.4-1.38.65-2.18.69H6.5a4.5 4.5 0 0 1 0-9zm9.11 12.21.1.08 6 6a1 1 0 0 1-1.32 1.5l-.1-.08-6-6a1 1 0 0 1 1.32-1.5zM6.5 15a2.5 2.5 0 1 0 0 5 2.5 2.5 0 0 0 0-5zm0-11a2.5 2.5 0 1 0 0 5 2.5 2.5 0 0 0 0-5z"/>
</svg>
